X: 339
T: 340. Befiehl du deine Wege
N: Derived from chor340.krn
C: Johann Sebastian Bach
%%abc-version 2.0
%%abcx-abcm2ps-target-version 5.9.1 (29 Sep 2008)
%%abc-creator hum2abc beta
%%abcx-conversion-date 2019/03/11 17:28:19
%%abc-edited-by Craig Stuart Sapp
%%humdrum-veritas 1698563389
%%humdrum-veritas-data 2700221524
%%
%%barnumbers 0
L: 1/4
M: C
%%staves [1 2 3 4]
V: 1 clef=treble
V: 2 clef=treble
V: 3 clef=treble-8
V: 4 clef=bass
K: F
[V:1] D/E/ [I:setbarnb 1]| 
[V:2] D/^C/ | 
[V:3] A/G/ | 
[V:4] F,/E,/ | 
[V:1] FEFG | 
[V:2] DB,A,D/=C/ | 
[V:3] AGFF/E/ | 
[V:4] D,3/^C,/ D,/=C,/ B,,/C,/ | 
[V:1] A2!fermata!Ac | 
[V:2] C2!fermata!CC | 
[V:3] F2!fermata!FG | 
[V:4] F,,2!fermata!F,,E, | 
[V:1] =BAA^G | 
[V:2] F^FEE | 
[V:3] ^Gc=B/c/=d | 
[V:4] D,^D,E,E,, | 
[V:1] !fermata!A3 :|]  
[V:2] !fermata!E3 :|]  
[V:3] !fermata!c3 :|]  
[V:4] !fermata!A,,3 :|]  
[V:1] A [I:setbarnb 5]| 
[V:2] E/^F/ | 
[V:3] c | 
[V:4] A,- | 
[V:1] =Bcd/c/B | 
[V:2] ^GAA=G | 
[V:3] dedd | 
[V:4] A,A,/=G,/^F,G,/=F,/ | 
[V:1] c3/_B/!fermata!AA | 
[V:2] GF/G/!fermata!FF/_E/ | 
[V:3] c/e/ d/c/!fermata!cc | 
[V:4] E,/C,/ D,/E,/!fermata!F,F,, | 
[V:1] GFF=E | 
[V:2] DDCC | 
[V:3] B_AG3/=A//_B// | 
[V:4] B,,=B,,C,C,, | 
[V:1] !fermata!F3A/G/ | 
[V:2] !fermata!C3E | 
[V:3] !fermata!A3A | 
[V:4] !fermata!F,,3^C, | 
[V:1] FGAG | 
[V:2] F3/E/F3/E/- | 
[V:3] Ad/c/cd/e/ | 
[V:4] D,/=C,/ B,,/C,/ F,,/A,,/ =B,,/^C,/ | 
[V:1] F2!fermata!EF | 
[V:2] E/D/D!fermata!^CD- | 
[V:3] A/^G/ A/=B/!fermata!AA | 
[V:4] D,/_B,,/ A,,/^G,,/!fermata!A,,D, | 
[V:1] GFE2 | 
[V:2] D/^C/D2C | 
[V:3] GAA3/G/ | 
[V:4] E,F,/G,/A,A,, | 
[V:1] !fermata!D3 |]  
[V:2] !fermata!A,3 |]  
[V:3] !fermata!F3 |]  
[V:4] !fermata!D,3 |]  



